!!!COM: Georges, Kenrick Anderson
!!!CDT: b.1955
!!!OTL: National Anthem, Saint Kitts and Nevis
!!!ENC: Davis, Matthew J.
!!Vocal Line Only
**kern
*clefG2
*k[b-e-]
*B-:
*M3/4
=1-
4f
=2
2dd
4b
=3
4g
4f
4f
==!|:4
!Coda Symbol
4b-
4dd
4ff
=5
8ff
8dd
4b
4f
=6
4g
4b-
8b-
8g
=7
2f
8b-
8dd
=8
8cc
8b-
4g
4en
=9
2f
4f
=10
4.b-
8f
8d
8B-
=11
4g
4g
4g
=12
4.g
8en
8d
8c
=13
2a
4ff
=14
4.dd
8cc
8b-
8dd
=15
8ee-
8g
4cc
8b-
8cc
=16
8dd
8ee-
4.cc
8b-
=17
2b-
!Fine
==18
4f
=19
4dd
4b-
4g
=20
2f
4f
!D. Coda Symbol al Fine
==:|!
*-
